!!!COM:	Bach, Johann Sebastian
!!!CDT:	1685/02/21/-1750/07/28/
!!!OTL@@DE:	Christ lag in Todesbanden
!!!SCT:	BWV 4/8
!!!PC#:	184
!!!AGN:	chorale
**kern	**kern	**kern	**kern	**chordsymbol
*ICvox	*ICvox	*ICvox	*ICvox	*
*Ibass	*Itenor	*Ialto	*Isoprn	*
*I"Bass	*I"Tenor	*I"Alto	*I"Soprano	*
*>[A,A,B]	*>[A,A,B]	*>[A,A,B]	*>[A,A,B]	*>[A,A,B]
*>norep[A,B]	*>norep[A,B]	*>norep[A,B]	*>norep[A,B]	*>norep[A,B]
*>A	*>A	*>A	*>A	*>A
*clefF4	*clefGv2	*clefG2	*clefG2	*
*k[]	*k[]	*k[]	*k[]	*
*d:dor	*d:dor	*d:dor	*d:dor	*d:dor
*M4/4	*M4/4	*M4/4	*M4/4	*M4/4
*met(c)	*met(c)	*met(c)	*met(c)	*met(c)
*MM100	*MM100	*MM100	*MM100	*MM100
4D	8dL	4f	4a	Dmm
.	8cJ	.	.	Dmm
=1	=1	=1	=1	=1
8EL	4B	4e	4g#	EMm
8D	.	.	.	EMm
8C	8cL	4e	8aL	Am
8BBJ	8G#J	.	8bJ	G#m(?5)
4AA	4A	4e	4cc	Am
4GG#	4B	4e	4dd	EMm
=2	=2	=2	=2	=2
4AA	4A	4e	4cc	Am
4EE	4G#	8eL	4b	EMm
.	.	8dJ	.	EMm
4AA;	4E;	4c#;	4a;	AM
4C#	4A	4e	4a	AM
=3	=3	=3	=3	=3
4D	8AL	4d	4f	Dm
.	8B-J	.	.	B-M
4E	8AL	4cnX	4g	CM
.	8GnXJ	.	.	CM
8FL	8FL	8cL	4a	FM
8EJ	8GJ	8c#J	.	AM
4D	4A	4d	8gL	Dm
.	.	.	8fJ	Dm
=4	=4	=4	=4	=4
8GGL	4B-	4d	8eL	Gm
16AAL	.	.	8dJ	Gm
16BB-XJJ	.	.	.	Gm
4AA	8EL	4c#	4e	AMm
.	8GJ	.	.	AMm
2DD;	2F;	2A;	2d;	Dm
=5:|!	=5:|!	=5:|!	=5:|!	=5:|!
*>B	*>B	*>B	*>B	*>B
4.D	8FL	4A	8dL	Dmm
.	8GJ	.	8eJ	Dmm
.	4A	4d	4f	Dmm
8C	.	.	.	Dmm
8BB-L	8GL	4.d	4g	Gm
8AAJ	8AJ	.	.	Gm
4GG	4B-X	.	8dL	Gm
.	.	8c#	8eJ	C#dd
=6	=6	=6	=6	=6
4D	4A	4d	4f	Dm
4E	4G	4cnX	4g	CM
4F;	4F;	4c;	4a;	FM
8FL	4c	8fL	4a	FMM
8EJ	.	8gJ	.	FMM
=7	=7	=7	=7	=7
4D	4f	4a	4dd	Dm
4E	4e	4g	4cc#	C#d
4F#	8dL	4a	4dd	DMm
.	8cnXJ	.	.	DMm
4G#	4B	4e	8eeL	EMm
.	.	.	8ddJ	EMm
=8	=8	=8	=8	=8
4A	4A	4e	4ccnX	Am
4E	4G#	8eL	4b	EMm
.	.	8dJ	.	EMm
4AA;	4E;	4c;	4a;	Am
4D	4FnX	4d	4b	Bd
=9	=9	=9	=9	=9
4C	4GnX	4e	4cc	CM
4F	4F	4c	8aL	FM
.	.	.	8b-J	FM
8AAL	4F	4f	4cc	FM
8BB-J	.	.	.	FM
4C	8cL	[4e	4g	CMm
.	8B-XJ	.	.	CMm
=10	=10	=10	=10	=10
4D	4A	8e]	4f	Dm
.	.	4d	.	Dm
4AA	4G	.	4e	AMm
.	.	8c#	.	AMm
2BB-;	2F;	2d;	2d;	B-M
=11	=11	=11	=11	=11
4F	4F	8cnXL	4a	FM
.	.	8dJ	.	Dm
4C#	8EL	[4e	4g	AMm
.	8AJ	.	.	AMm
4D	4A	8eL]	2f	Dm
.	.	8c#J	.	Dm
4BB-	[4B-	[4d	.	B-M
=12	=12	=12	=12	=12
4GG	4B-]	4d]	2e	Edm
!!The next two notes in the tenor were transpoesed down a step. I've fixed this. (Nathaniel Condit-Schultz, 2018/7/20).
4AA	8AL	4c#	.	AMm
.	8GJ	.	.	AMm
2DD;	2F#;	2A;	2d;	DM
==	==	==	==	==
*-	*-	*-	*-	*-
!!!hum2abc: -Q ''
!!!title: @{PC#}. @{OTL@@DE}
!!!YOR1: 371 vierstimmige Choralges&auml;nge von Johann Sebastian Bach, 
!!!YOR2: 4th ed. by Alfred D&ouml;rffel (Leipzig: Breitkopf und H&auml;rtel, 
!!!YOR2: c.1875). 178 pp. Plate "V.A.10".  reprint: J.S. Bach, 371 Four-Part 
!!!YOR4: Chorales (New York: Associated Music Publishers, Inc., c.1940).
!!!SMS: B&H, 4th ed, Alfred D&ouml;rffel, c.1875, plate V.A.10
!!!EED:  Craig Stuart Sapp
!!!EEV:  2009/05/22
!!! **chordsymbol annotations generated by the FlexibleChoraleHarmonicAnalysis package.
!!! Condit-Schultz, Ju, and Fujinaga, ISMIR (2018)
!!! Created on Sat Mar 02 11:23:32 2019
